X:1
T:Nog mins jag, hur det var, när lilla vännen for
T:Aug. Söderman (1832-1876)
T:Nog mins jag, hur det var, när lilla vännen for
T:Nr 3 av Tre visor i folkton
T:©PA Aglert Edition may be freely distributed, duplicated, performed and recorded
T:©PA Aglert Edition may be freely distributed, duplicated, performed and recorded
C:Aug. Söderman (1832-1876)
Z:©PA Aglert
Z:Edition may be freely distributed, duplicated, performed and recorded
%%score [ ( 1 2 ) ( 3 4 ) ]
L:1/8
Q:1/4=92
M:4/4
K:Eb
V:1 treble nm="S A"
V:2 treble 
V:3 bass nm="T B"
V:4 bass 
V:1
"^Alegretto"!p! G>A | B2 E>F G2 GA |!<(! B>G!<)! Ac B2!f! BB | e>G GG c>F FG | %4
w: 1.Nog mins|jag, hur det var, när som|lil- la vän- nen for, och jag|kän- de mig så en- sam ut- i|
w: 2.Mång- en|kväll ut- i lund har jag|vän- tat på min vän, men hans|stäm- * ma mig ald- * rig vill|
!>(! A3 B!>)! G2!p! G>A | B2 E>F G2 GA |!<(! B>G AB c2!<)!!ff! cc | %7
w: värl- * den. Lär- kan|sjöng, gå- ken gol och var|äng i plom- ma stod; men för|
w: sva- * ra. Skul- le|svek kun- na bo i hans|re- de- li- ga bröst, i hans|
 c>e _dc B>!>(!B !courtesy!_AG!>)! | F2 =E2 F2 z2 | z8 | %10
w: mig fanns ing- en gläd- je mer i|värl- * den.||
w: ö- * gon som stjär- * * nor|kla- * ra?||
"^rall." z4 z2 z!f!"^marcato" B,/"^a tempo"B,/ | B,2- B,E/F/ _G2 EG/A/ | %12
w: e- kot|svar- * te från klip- por, i- från|
w: Då blir|liv, _ då blir lust, ja då blir|
"^poco più lento""^poco più lento" B2"^rall." _G>A B2!pp! B_c | !>!_d2 B>!>(!A _G2 A!>)!A | %14
w: val- lar och torn; men jag|sör- jer den fröjd, som är|
w: da- gen ej lång; men jag|sör- jer den fröjd, som är|
"^rall.""^rall." B4 B2 z2 |] %15
w: flyk- tad.|
w: flyk- tad.|
V:2
 E>E | E2 C>D E2 EE | E>E EA G2 GG | G>E EE E>E EE | E2 D2 E2 E>E | E2 C>D E2 EE | E>E EE E2 =EG | %7
 =A>A AA F>F _DD | C4 C2 z2 | x8 | z4 z2 z B,/B,/ | B,2- B,_G,/B,/ E2 G,E/F/ | %12
 _G2 E>F !fermata!G2 GG | B2 F>F E2 EE | !courtesy!=D2 F2 E2 z2 |] %15
V:3
!p! B,>A, | B,2 G,>B, B,2 B,C |!<(! _D>B,!<)! C=D E2!f! EE | E>C CC C>C CC | %4
w: ||||
w: ||||
!>(! C_C B,2!>)! B,2!p! B,>A, | B,2 G,>B, B,2 B,C |!<(! _D>B, C=D!<)! C2!ff! C=E | %7
w: |||
w: |||
 !courtesy!_E>_G FE _D>!>(!D CB,!>)! | !courtesy!_A,2 G,2 A,2!f! z"^marcato" F,/F,/ | %9
w: |* * * När han|
w: |* * * Nej, om|
 F,2- F,B,/C/ _D2 B,D/E/ | F2 _D>E F2 z2 | z8 | z4 !fermata!z2!pp! _DE | %13
w: kom _ med sin bös- sa och sitt|skal- lan- de horn,|||
w: tro- * gen jag blir, skall han nog|kom- ma en gång.|||
 !>!F2 _D>!>(!_C B,2 F,!>)!F, | F,2 !courtesy!_A,2 _G,2 z2 |] %15
w: ||
w: ||
V:4
 E,>C, | G,,2 C,>B,, E,2 E,E, | E,>E, E,E, E,2 E,D, | C,>C CB, A,>A, A,G, | F,2 B,,2 E,2 E,>C, | %5
 G,,2 C,>B,, E,2 E,E, | E,>E, E,E, A,2 G,G, | F,>F, F,F, B,>B,, B,,B,, | C,4 F,2 z F,/F,/ | %9
 F,2- F,_D,/F,/ B,2 D,B,/C/ | _D2 B,>C D2 z2 | x8 | z4 z2 _G,G, | _D,2 D,>D, E,2 _C,C, | %14
 B,,4 E,2 z2 |] %15

